X:3762
T:Lonesome Jig, The
T:Sean Ryan's Jig
O:england
R:jig
H:Also played with 2nd part the same both times through: version 2
D:De Dannan: Selected Jigs and Reels.
M:6/8
L:1/8
K:Ador
cBA BAG|AGE DB,G,|~A,3 ~E3|DEG A2B|
cBA BAG|AGE DB,G,|~A,3 ~E3|DB,G, A,2B:|
cBA ~a3|bag edB|GBd ~g3|age dBG|
Ace ~a3|bag edB|GBd ~g3|edB A2B|
cBA ~a3|bag edB|GBd ~g3|GBd GBd|
~c3 dcd|ede gab|age dBG|EFG A2B|
